X: 1
T: Morpeth Rant
S: Robert Petrie's Second Collection of Strathspey Reels and Country Dances (1795/6, p.17)
S: MacDonald \`i 3rd Collection of Strathspey Reels (c.1792)
N: Ornamentation etc. edited out
M: 4/4
L: 1/8
R: rant
K: Gmaj
(3DEF|G2DC B,G,B,D|ECEG FDFA|BGcA dBAG|FGAB A2GF|
G2DC B,G,B,D|ECEG FDFA|Bedc BAGF|G2G2 G2:|
|:ef|gdBG FAce|dBAG F2ED|cAcA BGBG|FGAF D2D=F|
ECEG cBAG|FDFA dcBA|Bgfe dcBA|G2G2 G2:|
